Numix-Circle/48x48/apps/scorched3d.svg

<?xml version="1.0" encoding="UTF-8" standalone="no"?>
<svg
   xmlns:dc="http://purl.org/dc/elements/1.1/"
   xmlns:cc="http://creativecommons.org/ns#"
   xmlns:rdf="http://www.w3.org/1999/02/22-rdf-syntax-ns#"
   xmlns:svg="http://www.w3.org/2000/svg"
   xmlns="http://www.w3.org/2000/svg"
   xmlns:xlink="http://www.w3.org/1999/xlink"
   xmlns:sodipodi="http://sodipodi.sourceforge.net/DTD/sodipodi-0.dtd"
   xmlns:inkscape="http://www.inkscape.org/namespaces/inkscape"
   width="48"
   viewBox="0 0 13.546667 13.546667"
   height="48"
   id="svg2"
   version="1.1"
   inkscape:version="0.91 r13725"
   sodipodi:docname="scorched3d.svg">
  <metadata
     id="metadata331">
    <rdf:RDF>
      <cc:Work
         rdf:about="">
        <dc:format>image/svg+xml</dc:format>
        <dc:type
           rdf:resource="http://purl.org/dc/dcmitype/StillImage" />
        <dc:title />
      </cc:Work>
    </rdf:RDF>
  </metadata>
  <sodipodi:namedview
     pagecolor="#ffffff"
     bordercolor="#666666"
     borderopacity="1"
     objecttolerance="10"
     gridtolerance="10"
     guidetolerance="10"
     inkscape:pageopacity="0"
     inkscape:pageshadow="2"
     inkscape:window-width="1366"
     inkscape:window-height="713"
     id="namedview329"
     showgrid="false"
     inkscape:zoom="11.313708"
     inkscape:cx="21.931242"
     inkscape:cy="27.398974"
     inkscape:window-x="0"
     inkscape:window-y="28"
     inkscape:window-maximized="1"
     inkscape:current-layer="layer3"
     inkscape:snap-to-guides="false"
     showguides="true"
     inkscape:guide-bbox="true">
    <inkscape:grid
       type="xygrid"
       id="grid3308" />
  </sodipodi:namedview>
  <defs
     id="defs4">
    <linearGradient
       id="linearGradient4073">
      <stop
         style="stop-color:#e93535;stop-opacity:1;"
         offset="0"
         id="stop4075" />
      <stop
         style="stop-color:#eb4747;stop-opacity:1;"
         offset="1"
         id="stop4077" />
    </linearGradient>
    <radialGradient
       xlink:href="#0-6"
       id="6-9"
       cx="-3"
       cy="24"
       r="10"
       gradientUnits="userSpaceOnUse" />
    <linearGradient
       id="0-6">
      <stop
         stop-color="#91b0c7"
         id="stop7-0" />
      <stop
         offset="1"
         stop-color="#91b0c7"
         stop-opacity="0"
         id="stop9-3" />
    </linearGradient>
    <radialGradient
       r="10"
       cy="24"
       cx="-3"
       gradientUnits="userSpaceOnUse"
       id="radialGradient3922"
       xlink:href="#0-6"
       inkscape:collect="always" />
    <linearGradient
       inkscape:collect="always"
       xlink:href="#linearGradient4073"
       id="linearGradient4079"
       x1="-25.499998"
       y1="15"
       x2="-25.499998"
       y2="11"
       gradientUnits="userSpaceOnUse" />
  </defs>
  <g
     inkscape:groupmode="layer"
     id="layer1"
     inkscape:label="Shadow"
     sodipodi:insensitive="true">
    <path
       style="opacity:0.05;fill:#000000;fill-opacity:1;stroke:none"
       d="M 25,2 C 12.297451,2 2,12.297451 2,25 2,31.367153 4.6007106,37.116628 8.78125,41.28125 12.865755,44.99361 18.29568,47.25 24.25,47.25 c 12.702549,0 23,-10.297451 23,-23 0,-5.95432 -2.25639,-11.384245 -5.96875,-15.46875 C 37.116628,4.6007105 31.367153,2 25,2 z M 41.28125,8.78125 C 45.135604,12.894061 47.5,18.418655 47.5,24.5 c 0,12.702549 -10.297451,23 -23,23 C 18.418655,47.5 12.894061,45.135604 8.78125,41.28125 12.940939,45.4251 18.664604,48 25,48 37.702549,48 48,37.702549 48,25 48,18.664604 45.4251,12.940939 41.28125,8.78125 z"
       transform="scale(0.28222223,0.28222223)"
       id="path3978"
       inkscape:connector-curvature="0" />
    <path
       style="opacity:0.1;fill:#000000;fill-opacity:1;stroke:none"
       d="M 41.28125,8.78125 C 44.99361,12.865755 47.25,18.29568 47.25,24.25 c 0,12.702549 -10.297451,23 -23,23 -5.95432,0 -11.384245,-2.25639 -15.46875,-5.96875 C 12.894061,45.135604 18.418655,47.5 24.5,47.5 c 12.702549,0 23,-10.297451 23,-23 0,-6.081345 -2.364396,-11.605939 -6.21875,-15.71875 z"
       transform="scale(0.28222223,0.28222223)"
       id="path3976"
       inkscape:connector-curvature="0" />
    <path
       transform="matrix(4.3274074,0,0,3.2455556,117.19278,-35.348334)"
       d="m -24,13 a 1.5,2 0 1 1 -3,0 1.5,2 0 1 1 3,0 z"
       sodipodi:ry="2"
       sodipodi:rx="1.5"
       sodipodi:cy="13"
       sodipodi:cx="-25.5"
       id="path3952"
       style="opacity:0.2;fill:#000000;fill-opacity:1;stroke:none"
       sodipodi:type="arc" />
  </g>
  <g
     inkscape:groupmode="layer"
     id="layer2"
     inkscape:label="Base">
    <path
       sodipodi:type="arc"
       style="opacity:1;fill:url(#linearGradient4079);fill-opacity:1.0;stroke:none"
       id="path3942"
       sodipodi:cx="-25.5"
       sodipodi:cy="13"
       sodipodi:rx="1.5"
       sodipodi:ry="2"
       d="m -24,13 a 1.5,2 0 1 1 -3,0 1.5,2 0 1 1 3,0 z"
       transform="matrix(4.3274075,0,0,3.2455556,117.12222,-35.418889)" />
    <path
       style="opacity:0.1;fill:#000000;fill-opacity:1;stroke:none"
       d="M 40.03125 7.53125 C 43.74361 11.615755 46 17.04568 46 23 C 46 35.702549 35.702549 46 23 46 C 17.04568 46 11.615755 43.74361 7.53125 40.03125 C 11.709416 44.322508 17.537578 47 24 47 C 36.702549 47 47 36.702549 47 24 C 47 17.537578 44.322508 11.709416 40.03125 7.53125 z "
       id="path4027"
       transform="scale(0.28222223,0.28222223)" />
    <use
       id="use102"
       xlink:href="#7"
       transform="matrix(0.39511112,0,0,0.39511112,7.9586669,-2.4271114)"
       style="opacity:0.2"
       x="0"
       y="0"
       width="744.09448"
       height="1052.3622" />
    <use
       id="use104-7"
       xlink:href="#7"
       transform="matrix(0.39511112,0,0,0.39511112,7.9586669,-2.7093336)"
       style="fill:#f9f9f9"
       x="0"
       y="0"
       width="744.09448"
       height="1052.3622" />
    <use
       id="use108-3"
       xlink:href="#7"
       transform="matrix(0.31044445,0,0,0.31044445,7.7046669,-0.67733354)"
       style="fill:#355464"
       x="0"
       y="0"
       width="744.09448"
       height="1052.3622" />
    <use
       id="use110"
       xlink:href="#7"
       transform="matrix(0.22577778,0,0,0.22577778,7.4506669,1.3546665)"
       style="fill:#566d80"
       x="0"
       y="0"
       width="744.09448"
       height="1052.3622" />
    <use
       id="use112"
       xlink:href="#7"
       transform="matrix(0.16933334,0,0,0.16933334,7.2813335,2.7093332)"
       style="fill:#355464"
       x="0"
       y="0"
       width="744.09448"
       height="1052.3622" />
    <use
       id="use114"
       xlink:href="#7"
       transform="matrix(0.05644445,0,0,0.05644445,6.9426669,4.5719999)"
       style="fill:url(#6-9)"
       x="0"
       y="0"
       width="744.09448"
       height="1052.3622" />
    <use
       id="use116"
       xlink:href="#7"
       transform="matrix(0.02822222,0,0,0.02822222,6.8580002,6.6604444)"
       style="fill:url(#radialGradient3922)"
       x="0"
       y="0"
       width="744.09448"
       height="1052.3622" />
  </g>
  <g
     inkscape:groupmode="layer"
     id="layer3"
     inkscape:label="Symbol">
    <g
       id="g6268">
      <path
         d="M 6.7694174,5.7748794 6.62394,5.7687297 6.2143633,6.0001778 5.9465536,5.7083798 3.5160274,5.9851168 3.3866668,6.9594267 l 0.1156684,0 0.083509,0.2356287 0.1211522,0 c 0,0 0.063416,0.2625764 0.1353093,0.4968169 C 3.539747,7.8429134 3.520626,7.9645214 3.5559406,8.2684027 c 0.1382992,0.5772158 0.8059045,1.1721919 1.2568727,1.3085146 0.074688,0.029391 1.0677201,0.015731 2.4020216,0.013739 2.2217922,-0.00298 2.3419541,0.00335 2.4577764,-0.036211 0.5708277,-0.09588 0.9299237,-0.6000845 1.0239547,-0.9717406 0.01654,-0.1151628 0.03846,-0.2118402 0.02211,-0.3200083 C 10.703438,8.1542771 10.61966,8.0312516 10.560682,7.9815396 10.383799,7.834331 10.244125,7.7815237 9.7911802,7.7815237 9.6060331,7.6396444 9.058807,7.2562868 9.058807,7.2562868 L 6.752011,7.1161149 6.8738015,6.8272262 6.5598101,6.4601582 6.8779487,6.1959669 6.9318491,6.0599743 9.0795475,4.5156455 9.2591789,4.4964441 9.6730549,4.1669688 9.4568866,3.8945754 9.0091989,4.1740811 8.946525,4.3446901 z M 4.4636687,9.1000423 C 4.4832267,9.1775588 4.5107987,9.23211 4.5467097,9.305887 4.4462685,9.2338699 4.3497293,9.1615954 4.2508796,9.0815555 m 5.9319354,0.038313 C 10.098333,9.2164347 9.9931221,9.2899867 9.8326493,9.380605 9.9257279,9.2746265 9.9347025,9.205465 9.946909,9.1198661 M 6.3256538,9.2874425 c 0.045983,0.079196 0.042987,0.1335882 0.1172884,0.1940981 C 6.3253015,9.480835 6.2076622,9.4801276 6.090022,9.4794212 6.164859,9.4276361 6.2313036,9.360858 6.2782774,9.2873103 m 0.9584566,0.00333 c 0.052554,0.083184 0.066165,0.1379347 0.1328736,0.1874045 -0.08688,0.00138 -0.2022795,0.00285 -0.3493959,0.00371 0.066496,-0.05255 0.1236682,-0.117201 0.167967,-0.1911088 m -1.785874,0.00107 c 0.098299,0.1281388 0.082609,0.1409265 0.1366339,0.1903659 -0.1179548,7.054e-4 -0.2359092,0.00141 -0.3538636,0.00212 C 5.3039257,9.3840665 5.3096965,9.3568663 5.353042,9.2920396 m 3.7111836,0.00212 c 0.038604,0.087974 0.056468,0.1215413 0.1303595,0.1901703 -0.1191285,0.00345 -0.2021117,0.00144 -0.321544,0 0.080216,-0.069048 0.1159312,-0.1287858 0.1521612,-0.1902 m -1.0847468,0.190185 c 0.065368,-0.056029 0.1067487,-0.1097602 0.1518169,-0.1936011 0.010048,5.08e-4 0.038819,0 0.038819,0 0.05479,0.1148555 0.110897,0.1619544 0.1474597,0.1936011"
         id="path3908"
         inkscape:connector-curvature="0"
         style="fill:#000000;fill-opacity:0.11764706;fill-rule:nonzero;stroke:none"
         sodipodi:nodetypes="cccccccccccccccccccccccccccccccccccccccccccccccccccccccsc" />
      <path
         sodipodi:nodetypes="cccccccccccccccccccccccccccccccccccccccccccccccccccccccsc"
         style="fill:#2a2a36;fill-opacity:1;fill-rule:nonzero;stroke:none"
         inkscape:connector-curvature="0"
         id="path61"
         d="M 6.5702162,5.5491939 6.4236145,5.543044 6.0084884,5.7744923 5.6919208,5.4261585 3.2348051,5.7028948 3.1044445,6.6772053 l 0.1165623,0 0.084155,0.2356288 0.1220887,0 c 0,0 0.063913,0.2625767 0.1363589,0.496817 C 3.2587125,7.560692 3.2394402,7.6823004 3.2750277,7.9861818 3.4143958,8.5633976 4.0871603,9.1583735 4.541614,9.2946964 c 0.075267,0.029391 1.0759712,0.015731 2.4205845,0.013739 2.2389625,-0.00298 2.326387,0.00335 2.4431045,-0.03621 0.5752407,-0.095883 0.925832,-0.6863713 1.020599,-1.0580275 0.01667,-0.1151625 0.02329,-0.2118399 0.0067,-0.320008 C 10.417343,7.7857704 10.333067,7.6642506 10.273635,7.6145389 10.095381,7.4673309 10.015024,7.4573027 9.5585766,7.4573027 9.4006582,7.3095532 8.8776521,6.9320656 8.8776521,6.9320656 L 6.4957966,6.8060727 6.6088836,6.5450052 6.3589893,6.2344728 6.6795865,5.9702811 6.7339032,5.8342889 8.8981994,4.2899599 9.0792188,4.2707586 9.4953578,3.9418231 9.2801067,3.6688898 8.8273071,3.9483953 8.764149,4.1190045 z M 4.1897697,8.8178214 c 0.01971,0.077516 0.047496,0.1320679 0.083684,0.2058446 C 4.1722348,8.9516491 4.0749494,8.8793746 3.9753358,8.7993347 m 5.9490157,0.03831 C 9.8392189,8.9342138 9.7331905,9.0077659 9.5714771,9.0983842 9.6652759,8.9924057 9.6743189,8.9232438 9.68662,8.837645 M 6.0661439,9.0052215 c 0.046334,0.079196 0.043322,0.1335885 0.1181949,0.1940983 -0.1185491,-7.055e-4 -0.237098,-0.00142 -0.3556472,-0.00212 0.075417,-0.051785 0.1423732,-0.1185635 0.1897103,-0.1921109 m 0.9658636,0.00333 c 0.052962,0.083185 0.066676,0.1379348 0.1339001,0.1874048 -0.087549,0.00138 -0.2038423,0.00285 -0.3520959,0.00371 0.067013,-0.05255 0.1246244,-0.117201 0.1692653,-0.191109 m -1.7996754,0.00104 c 0.099058,0.1281356 0.083246,0.1409229 0.1376897,0.1903623 -0.1188664,7.056e-4 -0.2377325,0.00141 -0.3565985,0.00212 C 5.0365205,9.1018218 5.0423356,9.0746208 5.0860162,9.0097943 m 3.7398642,0.00212 c 0.038904,0.087974 0.056901,0.1215409 0.1313668,0.1901703 -0.1200496,0.00345 -0.2036734,0.00144 -0.3240288,0 0.080837,-0.069052 0.1168271,-0.1287886 0.153337,-0.1902028 M 7.6934253,9.2020707 c 0.065869,-0.056029 0.107574,-0.1097604 0.1529902,-0.193601 0.01013,5.078e-4 0.039116,0 0.039116,0 0.055211,0.1148551 0.111754,0.1619543 0.1485997,0.193601" />
    </g>
  </g>
</svg>

<svg xmlns="http://www.w3.org/2000/svg" width="48" viewBox="0 0 13.546667 13.546667" height="48"><defs><radialGradient cx="-3" cy="24" r="10" gradientUnits="userSpaceOnUse"><stop stop-color="#91b0c7"/><stop offset="1" stop-color="#91b0c7" stop-opacity="0"/></radialGradient><linearGradient id="linearGradient4079" y1="15" x2="0" y2="11" gradientUnits="userSpaceOnUse"><stop stop-color="#e93535" stop-opacity="1"/><stop offset="1" stop-color="#eb4747" stop-opacity="1"/></linearGradient></defs><g><path d="m 25 2 c -12.703 0 -23 10.297 -23 23 0 6.367 2.601 12.12 6.781 16.281 4.085 3.712 9.514 5.969 15.469 5.969 c 12.703 0 23 -10.297 23 -23 0 -5.954 -2.256 -11.384 -5.969 -15.469 c -4.165 -4.181 -9.914 -6.781 -16.281 -6.781 z m 16.281 6.781 c 3.854 4.113 6.219 9.637 6.219 15.719 c 0 12.703 -10.297 23 -23 23 c -6.081 0 -11.606 -2.364 -15.719 -6.219 4.16 4.144 9.883 6.719 16.219 6.719 12.703 0 23 -10.297 23 -23 0 -6.335 -2.575 -12.06 -6.719 -16.219 z" transform="scale(0.28222223,0.28222223)" opacity="0.05" fill="#000" stroke="none" fill-opacity="1"/><path d="m 41.28 8.781 c 3.712 4.085 5.969 9.514 5.969 15.469 c 0 12.703 -10.297 23 -23 23 -5.954 0 -11.384 -2.256 -15.469 -5.969 c 4.113 3.854 9.637 6.219 15.719 6.219 c 12.703 0 23 -10.297 23 -23 0 -6.081 -2.364 -11.606 -6.219 -15.719 z" transform="scale(0.28222223,0.28222223)" opacity="0.1" fill="#000" stroke="none" fill-opacity="1"/><path transform="matrix(4.3274074,0,0,3.2455556,117.19278,-35.348334)" d="m -24 13 a 1.5 2 0 1 1 -3 0 1.5 2 0 1 1 3 0 z" opacity="0.2" fill="#000" stroke="none" fill-opacity="1"/></g><g><path d="m -24 13 a 1.5 2 0 1 1 -3 0 1.5 2 0 1 1 3 0 z" transform="matrix(4.3274075,0,0,3.2455556,117.12222,-35.418889)" opacity="1" fill="url(#linearGradient4079)" stroke="none" fill-opacity="1"/><path d="m 40.03 7.531 c 3.712 4.085 5.969 9.514 5.969 15.469 c 0 12.703 -10.297 23 -23 23 c -5.954 0 -11.384 -2.256 -15.469 -5.969 c 4.178 4.291 10.01 6.969 16.469 6.969 c 12.703 0 23 -10.297 23 -23 c 0 -6.462 -2.677 -12.291 -6.969 -16.469 z" transform="scale(0.28222223,0.28222223)" opacity="0.1" fill="#000" stroke="none" fill-opacity="1"/></g><g><g><path d="m 6.769 5.775 -0.145 -0.006 -0.41 0.231 -0.268 -0.292 -2.431 0.277 -0.129 0.974 l 0.116 0 0.084 0.236 0.121 0 c 0 0 0.063 0.263 0.135 0.497 c -0.303 0.151 -0.322 0.273 -0.286 0.577 c 0.138 0.577 0.806 1.172 1.257 1.309 0.075 0.029 1.068 0.016 2.402 0.014 2.222 -0.003 2.342 0.003 2.458 -0.036 0.571 -0.096 0.93 -0.6 1.024 -0.972 0.017 -0.115 0.038 -0.212 0.022 -0.32 c -0.015 -0.108 -0.099 -0.231 -0.158 -0.281 -0.177 -0.147 -0.317 -0.2 -0.77 -0.2 -0.185 -0.142 -0.732 -0.525 -0.732 -0.525 l -2.307 -0.14 0.122 -0.289 -0.314 -0.367 0.318 -0.264 0.054 -0.136 2.148 -1.544 0.18 -0.019 0.414 -0.329 -0.216 -0.272 -0.448 0.28 -0.063 0.171 z m -2.306 3.325 c 0.02 0.078 0.047 0.132 0.083 0.206 -0.1 -0.072 -0.197 -0.144 -0.296 -0.224 m 5.932 0.038 c -0.084 0.097 -0.19 0.17 -0.35 0.261 0.093 -0.106 0.102 -0.175 0.114 -0.261 m -3.621 0.168 c 0.046 0.079 0.043 0.134 0.117 0.194 c -0.118 -0.0001 -0.235 -0.0001 -0.353 -0.002 0.075 -0.052 0.141 -0.119 0.188 -0.192 m 0.958 0.003 c 0.053 0.083 0.066 0.138 0.133 0.187 -0.087 0.0001 -0.202 0.003 -0.349 0.004 0.066 -0.053 0.124 -0.117 0.168 -0.191 m -1.786 0.0001 c 0.098 0.128 0.083 0.141 0.137 0.19 -0.118 0.0001 -0.236 0.0001 -0.354 0.002 c 0.119 -0.1 0.125 -0.127 0.168 -0.192 m 3.711 0.002 c 0.039 0.088 0.056 0.122 0.13 0.19 -0.119 0.003 -0.202 0.0001 -0.322 0 0.08 -0.069 0.116 -0.129 0.152 -0.19 m -1.085 0.19 c 0.065 -0.056 0.107 -0.11 0.152 -0.194 0.001 0.0001 0.039 0 0.039 0 0.055 0.115 0.111 0.162 0.147 0.194" fill="#000" fill-rule="nonzero" stroke="none" fill-opacity="0.118"/><path d="m 6.57 5.549 -0.147 -0.006 -0.415 0.231 -0.317 -0.348 -2.457 0.277 -0.13 0.974 l 0.117 0 0.084 0.236 0.122 0 c 0 0 0.064 0.263 0.136 0.497 c -0.305 0.151 -0.324 0.273 -0.289 0.577 0.139 0.577 0.812 1.172 1.267 1.309 c 0.075 0.029 1.076 0.016 2.421 0.014 2.239 -0.003 2.326 0.003 2.443 -0.036 0.575 -0.096 0.926 -0.686 1.021 -1.058 0.017 -0.115 0.023 -0.212 0.007 -0.32 c -0.015 -0.108 -0.1 -0.23 -0.159 -0.28 -0.178 -0.147 -0.259 -0.157 -0.715 -0.157 -0.158 -0.148 -0.681 -0.525 -0.681 -0.525 l -2.382 -0.126 0.113 -0.261 -0.25 -0.311 0.321 -0.264 0.054 -0.136 2.164 -1.544 0.181 -0.019 0.416 -0.329 -0.215 -0.273 -0.453 0.28 -0.063 0.171 z m -2.38 3.269 c 0.02 0.078 0.047 0.132 0.084 0.206 c -0.101 -0.072 -0.199 -0.144 -0.298 -0.224 m 5.949 0.038 c -0.085 0.097 -0.191 0.17 -0.353 0.261 0.094 -0.106 0.103 -0.175 0.115 -0.261 m -3.62 0.168 c 0.046 0.079 0.043 0.134 0.118 0.194 -0.119 -0.0001 -0.237 -0.0001 -0.356 -0.002 0.075 -0.052 0.142 -0.119 0.19 -0.192 m 0.966 0.003 c 0.053 0.083 0.067 0.138 0.134 0.187 -0.088 0.0001 -0.204 0.003 -0.352 0.004 0.067 -0.053 0.125 -0.117 0.169 -0.191 m -1.8 0.0001 c 0.099 0.128 0.083 0.141 0.138 0.19 -0.119 0.0001 -0.238 0.0001 -0.357 0.002 c 0.12 -0.1 0.126 -0.127 0.169 -0.192 m 3.74 0.002 c 0.039 0.088 0.057 0.122 0.131 0.19 -0.12 0.003 -0.204 0.0001 -0.324 0 0.081 -0.069 0.117 -0.129 0.153 -0.19 m -1.093 0.19 c 0.066 -0.056 0.108 -0.11 0.153 -0.194 0.001 0.0001 0.039 0 0.039 0 0.055 0.115 0.112 0.162 0.149 0.194" fill="#2a2a36" fill-rule="nonzero" stroke="none" fill-opacity="1"/></g></g></svg>
